public/static/home2/plus.svg

<svg width="20" height="20" viewBox="0 0 20 20" fill="none" xmlns="http://www.w3.org/2000/svg">
<g id="Icon/Round/add_circle" clip-path="url(#clip0_19467_82564)">
<circle id="Ellipse 3313" cx="10" cy="10" r="7" fill="white"/>
<path id="Vector" d="M9.99935 1.66699C5.39935 1.66699 1.66602 5.40033 1.66602 10.0003C1.66602 14.6003 5.39935 18.3337 9.99935 18.3337C14.5993 18.3337 18.3327 14.6003 18.3327 10.0003C18.3327 5.40033 14.5993 1.66699 9.99935 1.66699ZM13.3327 10.8337H10.8327V13.3337C10.8327 13.792 10.4577 14.167 9.99935 14.167C9.54102 14.167 9.16602 13.792 9.16602 13.3337V10.8337H6.66602C6.20768 10.8337 5.83268 10.4587 5.83268 10.0003C5.83268 9.54199 6.20768 9.16699 6.66602 9.16699H9.16602V6.66699C9.16602 6.20866 9.54102 5.83366 9.99935 5.83366C10.4577 5.83366 10.8327 6.20866 10.8327 6.66699V9.16699H13.3327C13.791 9.16699 14.166 9.54199 14.166 10.0003C14.166 10.4587 13.791 10.8337 13.3327 10.8337Z" fill="#00A609"/>
</g>
<defs>
<clipPath id="clip0_19467_82564">
<rect width="20" height="20" fill="white"/>
</clipPath>
</defs>
</svg>

<svg width="20" height="20" viewBox="0 0 20 20" fill="none" xmlns="http://www.w3.org/2000/svg"><g clip-path="url(#a)"><circle cx="10" cy="10" r="7" fill="#fff"/><path d="M10 1.667A8.336 8.336 0 0 0 1.665 10c0 4.6 3.733 8.334 8.333 8.334S18.333 14.6 18.333 10s-3.734-8.333-8.334-8.333zm3.333 9.167h-2.5v2.5a.836.836 0 0 1-.834.833.836.836 0 0 1-.833-.833v-2.5h-2.5A.836.836 0 0 1 5.833 10c0-.458.375-.833.833-.833h2.5v-2.5c0-.458.375-.833.833-.833.459 0 .834.375.834.833v2.5h2.5c.458 0 .833.375.833.833a.836.836 0 0 1-.833.834z" fill="#00A609"/></g><defs><clipPath id="a"><path fill="#fff" d="M0 0h20v20H0z"/></clipPath></defs></svg>
